X:1
T:Title
%%score ( 1 2 ) { 3 | 4 }
L:1/8
Q:1/4=92
M:4/4
K:Bb
V:1 treble nm="Grand Piano, Soprano"
V:2 treble 
V:3 bass nm="Choir Pad, Alhambra Victor Benke 1902"
V:4 bass 
V:1
 [DF]2 [B,D][CE] [DF]3 [EF] | [DF][FB][EA][DB] [Fd]2 [Fc]2 | [FA]2 [=EB][EG] [Fc]3 [CF] | %3
w: By~Victor~H.~Benke,~1902 * * * *|||
 [DA][DG][CF][C=E] F2- [_EF]2 | [DF]2 [B,D][CE] [DF]3 [DB] | [EA][FB][Ge][Gd] [Gc]2 [EG]2 | %6
w: |||
 [CB]2 [_DA][DG] [=DF]2 [DG]2 | [FB][EA][EG][EA] [DB]4- | [DB]4 z4 |] %9
w: |||
V:2
 x8 | x8 | x8 | z4 C2 z2 | x8 | x8 | x8 | x8 | x8 |] %9
V:3
 B,2 F,F, B,3 A, | B,B,F,F, B,2 A,2 | C2 CC C3 A, | C[K:bass]B,A,B, A,2 C2 | B,2 F,F, B,3 B, | %5
 F,B,=B,B, C2 C2 | G,2 A,B, B,2 B,2 | DCB,C B,4- | B,4 z4 |] %9
V:4
 B,,2 B,,B,, B,,3 C, | D,D,C,B,, F,2 F,2 | F,2 G,B, A,3 F, | B,,B,,C,C, F,4 | %4
 B,,2 B,,B,, B,,3 B,, | C,D,G,F, E,2 E,2 | E,2 =E,E, F,2 F,2 | F,F,F,F, B,,4- | B,,4 z4 |] %9

